X:18
T:A Raz del Toxo Verde
C:Tradicional
S:Msica Tradicional Asturiana, (C) Tello & Tito. Asturies, 2001.
S:http://pagina.de/MusTradAst <telloytito@asturies.org>
A:Asturies
O:Bual
Z:Muyeres I
M:6/8
L:1/8
Q:3/8=66
K:Cm
G,|C2 C C=B,C|DED-D2 G|G2 D DED|C3 z2 G|G2 D D E F|G2 E-E CE|D2 F E2 D|C3 z3|
